Simply-Purple-Circles/scalable/apps/gnomebaker.svg

<svg xmlns="http://www.w3.org/2000/svg" width="48" height="48" viewBox="0 0 12.7 12.7"><path fill="#963996" d="M6.19.04A6.27 6.27 0 0 0 .06 6.32a6.27 6.27 0 0 0 6.28 6.28c2.04 0 3.84-.96 4.99-2.45L8.1 7.81l.01-.02a2.29 2.29 0 0 1-1.77.83 2.29 2.29 0 0 1-2.3-2.3c0-1.25.9-2.27 2.24-2.3h-.09V.04zm.11 4.61a1.65 1.67 0 0 0-1.65 1.67A1.65 1.67 0 0 0 6.3 7.98a1.65 1.67 0 0 0 1.66-1.66A1.65 1.67 0 0 0 6.3 4.65zm.02.66a1.03 1.03 0 0 1 1.02 1.04 1.03 1.03 0 0 1-1.02 1.03 1.03 1.03 0 0 1-1.03-1.03A1.03 1.03 0 0 1 6.32 5.3z"/><path fill="#d4ff2a" d="M6.19.03v3.99c1.36-.04 2.68 1.25 2.43 2.64-.08.45-.23.83-.52 1.15l3.23 2.34a6.28 6.28 0 0 0 .82-6.25A6.08 6.08 0 0 0 7.9.26C7.34.14 6.77.02 6.19.03z" opacity=".75"/></svg>

<?xml version="1.0" encoding="UTF-8" standalone="no"?>
<svg
   xmlns:dc="http://purl.org/dc/elements/1.1/"
   xmlns:cc="http://creativecommons.org/ns#"
   xmlns:rdf="http://www.w3.org/1999/02/22-rdf-syntax-ns#"
   xmlns:svg="http://www.w3.org/2000/svg"
   xmlns="http://www.w3.org/2000/svg"
   xmlns:sodipodi="http://sodipodi.sourceforge.net/DTD/sodipodi-0.dtd"
   xmlns:inkscape="http://www.inkscape.org/namespaces/inkscape"
   width="48"
   height="48"
   viewBox="0 0 12.7 12.7"
   version="1.1"
   id="svg6"
   sodipodi:docname="gnomebaker.svg"
   inkscape:version="0.92.4 (5da689c313, 2019-01-14)">
  <metadata
     id="metadata12">
    <rdf:RDF>
      <cc:Work
         rdf:about="">
        <dc:format>image/svg+xml</dc:format>
        <dc:type
           rdf:resource="http://purl.org/dc/dcmitype/StillImage" />
        <dc:title></dc:title>
      </cc:Work>
    </rdf:RDF>
  </metadata>
  <defs
     id="defs10" />
  <sodipodi:namedview
     pagecolor="#ffffff"
     bordercolor="#666666"
     borderopacity="1"
     objecttolerance="10"
     gridtolerance="10"
     guidetolerance="10"
     inkscape:pageopacity="0"
     inkscape:pageshadow="2"
     inkscape:window-width="1087"
     inkscape:window-height="480"
     id="namedview8"
     showgrid="false"
     inkscape:zoom="4.9166667"
     inkscape:cx="2.1355932"
     inkscape:cy="24"
     inkscape:window-x="0"
     inkscape:window-y="25"
     inkscape:window-maximized="0"
     inkscape:current-layer="svg6" />
  <path
     d="M 6.19,0.04 A 6.27,6.27 0 0 0 0.06,6.32 6.27,6.27 0 0 0 6.34,12.6 c 2.04,0 3.84,-0.96 4.99,-2.45 L 8.1,7.81 8.11,7.79 A 2.29,2.29 0 0 1 6.34,8.62 2.29,2.29 0 0 1 4.04,6.32 c 0,-1.25 0.9,-2.27 2.24,-2.3 H 6.19 Z M 6.3,4.65 A 1.65,1.67 0 0 0 4.65,6.32 1.65,1.67 0 0 0 6.3,7.98 1.65,1.67 0 0 0 7.96,6.32 1.65,1.67 0 0 0 6.3,4.65 Z M 6.32,5.31 A 1.03,1.03 0 0 1 7.34,6.35 1.03,1.03 0 0 1 6.32,7.38 1.03,1.03 0 0 1 5.29,6.35 1.03,1.03 0 0 1 6.32,5.3 Z"
     id="path2"
     inkscape:connector-curvature="0"
     style="fill:#963996" />
  <path
     d="M 6.19,0.03 V 4.02 C 7.55,3.98 8.87,5.27 8.62,6.66 8.54,7.11 8.39,7.49 8.1,7.81 l 3.23,2.34 A 6.28,6.28 0 0 0 12.15,3.9 6.08,6.08 0 0 0 7.9,0.26 C 7.34,0.14 6.77,0.02 6.19,0.03 Z"
     id="path4"
     inkscape:connector-curvature="0"
     style="opacity:0.75;fill:#d4ff2a" />
</svg>
